X: 081836
T: Harry the Rabbit
S: B.Breathnach:"Ceol Rince na hEireann" IV/224 (gan ainm) 
Z: B.Black
L: 1/8
M: 4/4
R: hornpipe
K: D
AF|GFED FAAF|GFED BABc|dcBA BAGF|B2 E2 E2 AF|
GFED FAAF|GFED BABf|gfed cdeg|f2 d2 d2 :|
(3ABc|dfdB cecA|Bcdc BAGF|GABc dcBA|B2 E2 E2 (3ABc|
dfdB cecA|BcdB A2 f2|gfed cdeg|f2 d2 d2 (3ABc|
dfdB cecA|Bcdc BAGF|GABc dcBA|B2 E2 E2 g2|
f2 fd e2 ec|dcdB A2 f2|gfed cdeg|f2 d2 d2 ||
